images/3stars.svg

<svg width="50" height="23" viewBox="0 0 50 23" fill="none" xmlns="http://www.w3.org/2000/svg">
<path d="M6.74138 20.8085L10.0109 22.8776C10.6096 23.2568 11.3423 22.6962 11.1847 21.9873L10.3181 18.0964L13.2094 15.475C13.7373 14.9969 13.4537 14.0901 12.7604 14.0324L8.95516 13.6944L7.46618 10.0179C7.19832 9.35015 6.28444 9.35015 6.01658 10.0179L4.52759 13.6862L0.722402 14.0242C0.0291159 14.0819 -0.254501 14.9886 0.273342 15.4668L3.16465 18.0882L2.29805 21.9791C2.14048 22.688 2.87316 23.2485 3.47191 22.8693L6.74138 20.8085Z" fill="#F2AB00"/>
<path d="M24.5862 17.2692L29.5866 20.4337C30.5023 21.0137 31.6229 20.1563 31.3819 19.0721L30.0565 13.1213L34.4785 9.11211C35.2858 8.38088 34.8521 6.99404 33.7917 6.90579L27.972 6.38888L25.6948 0.765909C25.2851 -0.255303 23.8874 -0.255303 23.4777 0.765909L21.2005 6.37627L15.3807 6.89318C14.3204 6.98144 13.8867 8.36827 14.6939 9.09951L19.116 13.1087L17.7906 19.0595C17.5496 20.1437 18.6701 21.001 19.5859 20.4211L24.5862 17.2692Z" fill="#F2AB00"/>
<path d="M42.4311 20.8085L45.7006 22.8776C46.2993 23.2568 47.032 22.6962 46.8744 21.9873L46.0078 18.0964L48.8991 15.475C49.427 14.9969 49.1434 14.0901 48.4501 14.0324L44.6449 13.6944L43.1559 10.0179C42.888 9.35015 41.9742 9.35015 41.7063 10.0179L40.2173 13.6862L36.4121 14.0242C35.7188 14.0819 35.4352 14.9886 35.9631 15.4668L38.8544 18.0882L37.9878 21.9791C37.8302 22.688 38.5629 23.2485 39.1616 22.8693L42.4311 20.8085Z" fill="#F2AB00"/>
</svg>

<svg width="50" height="23" fill="none" xmlns="http://www.w3.org/2000/svg"><path d="m6.741 20.808 3.27 2.07c.599.379 1.331-.182 1.174-.89l-.867-3.892 2.891-2.621c.528-.478.245-1.385-.449-1.443l-3.805-.338-1.489-3.676a.775.775 0 0 0-1.45 0l-1.488 3.668-3.806.338c-.693.058-.977.965-.449 1.443l2.892 2.621-.867 3.891c-.158.709.575 1.27 1.174.89l3.27-2.06zM24.586 17.27l5 3.164c.916.58 2.037-.278 1.796-1.362l-1.326-5.95 4.422-4.01c.808-.731.374-2.118-.686-2.206l-5.82-.517L25.695.766a1.185 1.185 0 0 0-2.217 0L21.2 6.376l-5.82.517c-1.06.088-1.494 1.475-.687 2.207l4.422 4.009-1.325 5.95c-.241 1.085.88 1.942 1.795 1.362l5-3.152zM42.431 20.808l3.27 2.07c.598.379 1.331-.182 1.173-.89l-.866-3.892 2.891-2.621c.528-.478.244-1.385-.449-1.443l-3.805-.338-1.49-3.676a.775.775 0 0 0-1.449 0l-1.489 3.668-3.805.338c-.693.058-.977.965-.449 1.443l2.891 2.621-.866 3.891c-.158.709.575 1.27 1.174.89l3.27-2.06z" fill="#F2AB00"/></svg>
